X:169
T:RVW2/2/169 Good People Of England
C:Mr. Punt, East Horndon, Essex, 26 October 1904
L:1/4
Q:1/4=120
M:3/4
I:linebreak $
K:G
"^(Editorial suggestion) " (G/A/) | B d d | d c A | A B A | G2 G/G/ | G B d |$ 
w: Good _|peo- ple of|Eng- land come|lis- ten a-|while I will|sing you a|
g (d/e/)"^(a)" =f/f/ | e"^(b)" c c | d2 d | B B d | g f e |$ d g e | (d B) G | B c d | d c A | 
w: dit- ty _ which will|cause you to|smile con-|cer- ning some|poach- ers you|ve- ry well|know _ they|fought in a|co- vert some|
A B A | G2 ||$ G/A/ | B d d | d c A | A B A | G2 G/G/ | G B d |$ g d/e/"^(a) var." =f | 
w: win- ters a-|go.||||||||
e"^(b) var." c/d/ e | d2 d | B B d | g f e |$ d g e | d B G | B c d | d c A | A B A | G2 |] 
w: ||||||||||



